images/16757944.svg

<?xml version="1.0" encoding="UTF-8"?>
<svg xmlns="http://www.w3.org/2000/svg" xmlns:xlink="http://www.w3.org/1999/xlink" width="300pt" height="300pt" viewBox="0 0 300 300" version="1.1">
<defs>
<g>
<symbol overflow="visible" id="glyph0-0">
<path style="stroke:none;" d="M 0.453125 1.59375 L 0.453125 -6.34375 L 4.953125 -6.34375 L 4.953125 1.59375 Z M 0.953125 1.09375 L 4.453125 1.09375 L 4.453125 -5.84375 L 0.953125 -5.84375 Z M 0.953125 1.09375 "/>
</symbol>
<symbol overflow="visible" id="glyph0-1">
<path style="stroke:none;" d="M 3.546875 -5.953125 C 2.898438 -5.953125 2.382812 -5.710938 2 -5.234375 C 1.625 -4.753906 1.4375 -4.101562 1.4375 -3.28125 C 1.4375 -2.445312 1.625 -1.789062 2 -1.3125 C 2.382812 -0.832031 2.898438 -0.59375 3.546875 -0.59375 C 4.191406 -0.59375 4.703125 -0.832031 5.078125 -1.3125 C 5.453125 -1.789062 5.640625 -2.445312 5.640625 -3.28125 C 5.640625 -4.101562 5.453125 -4.753906 5.078125 -5.234375 C 4.703125 -5.710938 4.191406 -5.953125 3.546875 -5.953125 Z M 3.546875 -6.6875 C 4.460938 -6.6875 5.195312 -6.375 5.75 -5.75 C 6.300781 -5.132812 6.578125 -4.3125 6.578125 -3.28125 C 6.578125 -2.238281 6.300781 -1.410156 5.75 -0.796875 C 5.195312 -0.179688 4.460938 0.125 3.546875 0.125 C 2.617188 0.125 1.878906 -0.179688 1.328125 -0.796875 C 0.773438 -1.410156 0.5 -2.238281 0.5 -3.28125 C 0.5 -4.3125 0.773438 -5.132812 1.328125 -5.75 C 1.878906 -6.375 2.617188 -6.6875 3.546875 -6.6875 Z M 3.546875 -6.6875 "/>
</symbol>
<symbol overflow="visible" id="glyph0-2">
<path style="stroke:none;" d="M 0.890625 -6.5625 L 1.765625 -6.5625 L 1.765625 -3.875 L 5 -3.875 L 5 -6.5625 L 5.890625 -6.5625 L 5.890625 0 L 5 0 L 5 -3.125 L 1.765625 -3.125 L 1.765625 0 L 0.890625 0 Z M 0.890625 -6.5625 "/>
</symbol>
</g>
</defs>
<g id="surface30633">
<rect x="0" y="0" width="300" height="300" style="fill:rgb(100%,100%,100%);fill-opacity:1;stroke:none;"/>
<path style="fill:none;stroke-width:1;stroke-linecap:butt;stroke-linejoin:miter;stroke:rgb(0%,0%,0%);stroke-opacity:1;stroke-miterlimit:10;" d="M 112.457031 155.941406 L 112.457031 155.941406 M 110.03125 157.707031 L 110.785156 158.429688 M 107.605469 159.472656 L 109.109375 160.921875 M 105.179688 161.238281 L 107.433594 163.410156 M 102.753906 163.003906 L 105.757812 165.898438 M 100.332031 164.769531 L 104.082031 168.386719 M 97.90625 166.535156 L 102.410156 170.875 M 95.480469 168.300781 L 100.734375 173.367188 M 93.054688 170.066406 L 99.058594 175.855469 M 91.960938 170.863281 L 98.304688 176.976562 "/>
<path style="fill:none;stroke-width:1.2;stroke-linecap:butt;stroke-linejoin:miter;stroke:rgb(0%,0%,0%);stroke-opacity:1;stroke-miterlimit:10;" d="M 112.457031 155.941406 L 119.363281 179.9375 "/>
<path style="fill:none;stroke-width:1.2;stroke-linecap:butt;stroke-linejoin:miter;stroke:rgb(0%,0%,0%);stroke-opacity:1;stroke-miterlimit:10;" d="M 129.785156 137.964844 L 112.457031 155.941406 "/>
<path style="fill:none;stroke-width:1.2;stroke-linecap:butt;stroke-linejoin:miter;stroke:rgb(0%,0%,0%);stroke-opacity:1;stroke-miterlimit:10;" d="M 88.226562 149.925781 L 112.457031 155.941406 "/>
<path style="fill:none;stroke-width:1.2;stroke-linecap:butt;stroke-linejoin:miter;stroke:rgb(0%,0%,0%);stroke-opacity:1;stroke-miterlimit:10;" d="M 119.363281 179.9375 L 143.59375 185.953125 "/>
<path style="fill:none;stroke-width:1.2;stroke-linecap:butt;stroke-linejoin:miter;stroke:rgb(0%,0%,0%);stroke-opacity:1;stroke-miterlimit:10;" d="M 143.59375 185.953125 L 160.921875 167.976562 "/>
<path style="fill:none;stroke-width:1.2;stroke-linecap:butt;stroke-linejoin:miter;stroke:rgb(0%,0%,0%);stroke-opacity:1;stroke-miterlimit:10;" d="M 160.921875 167.976562 L 154.015625 143.984375 "/>
<path style="fill:none;stroke-width:1.2;stroke-linecap:butt;stroke-linejoin:miter;stroke:rgb(0%,0%,0%);stroke-opacity:1;stroke-miterlimit:10;" d="M 178.246094 150 L 160.921875 167.976562 "/>
<path style="fill:none;stroke-width:1.2;stroke-linecap:butt;stroke-linejoin:miter;stroke:rgb(0%,0%,0%);stroke-opacity:1;stroke-miterlimit:10;" d="M 155.574219 146.472656 L 166.820312 139.429688 "/>
<path style="fill:none;stroke-width:1.2;stroke-linecap:butt;stroke-linejoin:miter;stroke:rgb(0%,0%,0%);stroke-opacity:1;stroke-miterlimit:10;" d="M 152.457031 141.492188 L 163.703125 134.453125 "/>
<path style="fill:none;stroke-width:1.2;stroke-linecap:butt;stroke-linejoin:miter;stroke:rgb(0%,0%,0%);stroke-opacity:1;stroke-miterlimit:10;" d="M 154.015625 143.984375 L 129.785156 137.964844 "/>
<path style=" stroke:none;fill-rule:nonzero;fill:rgb(0%,0%,0%);fill-opacity:1;" d="M 129.785156 137.964844 L 127.113281 112.753906 L 118.644531 115.191406 Z M 129.785156 137.964844 "/>
<path style="fill:none;stroke-width:1.2;stroke-linecap:butt;stroke-linejoin:miter;stroke:rgb(0%,0%,0%);stroke-opacity:1;stroke-miterlimit:10;" d="M 129.785156 137.964844 L 138.449219 128.976562 "/>
<path style="fill:none;stroke-width:1.2;stroke-linecap:butt;stroke-linejoin:miter;stroke:rgb(100%,0%,0%);stroke-opacity:1;stroke-miterlimit:10;" d="M 138.449219 128.976562 L 147.109375 119.988281 "/>
<path style="fill:none;stroke-width:1.2;stroke-linecap:butt;stroke-linejoin:miter;stroke:rgb(0%,0%,0%);stroke-opacity:1;stroke-miterlimit:10;" d="M 122.878906 113.972656 L 98.648438 107.957031 "/>
<path style="fill:none;stroke-width:1.2;stroke-linecap:butt;stroke-linejoin:miter;stroke:rgb(0%,0%,0%);stroke-opacity:1;stroke-miterlimit:10;" d="M 101.472656 107.144531 L 98.019531 95.148438 "/>
<path style="fill:none;stroke-width:1.2;stroke-linecap:butt;stroke-linejoin:miter;stroke:rgb(100%,0%,0%);stroke-opacity:1;stroke-miterlimit:10;" d="M 98.019531 95.148438 L 94.566406 83.152344 "/>
<path style="fill:none;stroke-width:1.2;stroke-linecap:butt;stroke-linejoin:miter;stroke:rgb(0%,0%,0%);stroke-opacity:1;stroke-miterlimit:10;" d="M 95.824219 108.769531 L 92.375 96.773438 "/>
<path style="fill:none;stroke-width:1.2;stroke-linecap:butt;stroke-linejoin:miter;stroke:rgb(100%,0%,0%);stroke-opacity:1;stroke-miterlimit:10;" d="M 92.375 96.773438 L 88.921875 84.773438 "/>
<path style="fill:none;stroke-width:1.2;stroke-linecap:butt;stroke-linejoin:miter;stroke:rgb(0%,0%,0%);stroke-opacity:1;stroke-miterlimit:10;" d="M 98.648438 107.957031 L 89.984375 116.945312 "/>
<path style="fill:none;stroke-width:1.2;stroke-linecap:butt;stroke-linejoin:miter;stroke:rgb(100%,0%,0%);stroke-opacity:1;stroke-miterlimit:10;" d="M 89.984375 116.945312 L 81.320312 125.933594 "/>
<path style=" stroke:none;fill-rule:nonzero;fill:rgb(100%,100%,100%);fill-opacity:1;" d="M 87.742188 78.460938 L 95.742188 78.460938 L 95.742188 89.460938 L 87.742188 89.460938 Z M 87.742188 78.460938 "/>
<g style="fill:rgb(100%,0%,0%);fill-opacity:1;">
  <use xlink:href="#glyph0-1" x="87.742188" y="87.124023"/>
</g>
<path style="fill:none;stroke-width:1.2;stroke-linecap:butt;stroke-linejoin:miter;stroke:rgb(100%,0%,0%);stroke-opacity:1;stroke-miterlimit:10;" d="M 81.320312 125.933594 L 84.773438 137.929688 "/>
<path style="fill:none;stroke-width:1.2;stroke-linecap:butt;stroke-linejoin:miter;stroke:rgb(0%,0%,0%);stroke-opacity:1;stroke-miterlimit:10;" d="M 84.773438 137.929688 L 88.226562 149.925781 "/>
<path style=" stroke:none;fill-rule:nonzero;fill:rgb(100%,100%,100%);fill-opacity:1;" d="M 77.320312 120.433594 L 85.320312 120.433594 L 85.320312 131.433594 L 77.320312 131.433594 Z M 77.320312 120.433594 "/>
<g style="fill:rgb(100%,0%,0%);fill-opacity:1;">
  <use xlink:href="#glyph0-1" x="77.320312" y="129.09668"/>
</g>
<path style="fill:none;stroke-width:1.2;stroke-linecap:butt;stroke-linejoin:miter;stroke:rgb(0%,0%,0%);stroke-opacity:1;stroke-miterlimit:10;" d="M 88.226562 149.925781 L 70.902344 167.902344 "/>
<path style="fill:none;stroke-width:1.2;stroke-linecap:butt;stroke-linejoin:miter;stroke:rgb(0%,0%,0%);stroke-opacity:1;stroke-miterlimit:10;" d="M 70.902344 167.902344 L 75.257812 192.484375 "/>
<path style="fill:none;stroke-width:1.2;stroke-linecap:butt;stroke-linejoin:miter;stroke:rgb(0%,0%,0%);stroke-opacity:1;stroke-miterlimit:10;" d="M 65.550781 171.386719 L 69.039062 191.054688 "/>
<path style="fill:none;stroke-width:1.2;stroke-linecap:butt;stroke-linejoin:miter;stroke:rgb(0%,0%,0%);stroke-opacity:1;stroke-miterlimit:10;" d="M 46.171875 164.449219 L 70.902344 167.902344 "/>
<path style="fill:none;stroke-width:1.2;stroke-linecap:butt;stroke-linejoin:miter;stroke:rgb(0%,0%,0%);stroke-opacity:1;stroke-miterlimit:10;" d="M 75.257812 192.484375 L 64.242188 198.355469 "/>
<path style="fill:none;stroke-width:1.2;stroke-linecap:butt;stroke-linejoin:miter;stroke:rgb(100%,0%,0%);stroke-opacity:1;stroke-miterlimit:10;" d="M 64.242188 198.355469 L 53.226562 204.226562 "/>
<path style="fill:none;stroke-width:1.2;stroke-linecap:butt;stroke-linejoin:miter;stroke:rgb(100%,0%,0%);stroke-opacity:1;stroke-miterlimit:10;" d="M 53.226562 204.226562 L 44.238281 195.566406 "/>
<path style="fill:none;stroke-width:1.2;stroke-linecap:butt;stroke-linejoin:miter;stroke:rgb(0%,0%,0%);stroke-opacity:1;stroke-miterlimit:10;" d="M 44.238281 195.566406 L 35.25 186.902344 "/>
<path style=" stroke:none;fill-rule:nonzero;fill:rgb(100%,100%,100%);fill-opacity:1;" d="M 49.226562 198.726562 L 57.226562 198.726562 L 57.226562 209.726562 L 49.226562 209.726562 Z M 49.226562 198.726562 "/>
<g style="fill:rgb(100%,0%,0%);fill-opacity:1;">
  <use xlink:href="#glyph0-1" x="49.226562" y="207.389648"/>
</g>
<path style="fill:none;stroke-width:1.2;stroke-linecap:butt;stroke-linejoin:miter;stroke:rgb(0%,0%,0%);stroke-opacity:1;stroke-miterlimit:10;" d="M 35.25 186.902344 L 46.171875 164.449219 "/>
<path style="fill:none;stroke-width:1.2;stroke-linecap:butt;stroke-linejoin:miter;stroke:rgb(0%,0%,0%);stroke-opacity:1;stroke-miterlimit:10;" d="M 41.625 187.226562 L 50.363281 169.265625 "/>
<path style="fill:none;stroke-width:1.2;stroke-linecap:butt;stroke-linejoin:miter;stroke:rgb(100%,0%,0%);stroke-opacity:1;stroke-miterlimit:10;" d="M 147.109375 119.988281 L 159.226562 123 "/>
<path style="fill:none;stroke-width:1.2;stroke-linecap:butt;stroke-linejoin:miter;stroke:rgb(0%,0%,0%);stroke-opacity:1;stroke-miterlimit:10;" d="M 159.226562 123 L 171.34375 126.007812 "/>
<path style=" stroke:none;fill-rule:nonzero;fill:rgb(100%,100%,100%);fill-opacity:1;" d="M 143.109375 114.488281 L 151.109375 114.488281 L 151.109375 125.488281 L 143.109375 125.488281 Z M 143.109375 114.488281 "/>
<g style="fill:rgb(100%,0%,0%);fill-opacity:1;">
  <use xlink:href="#glyph0-1" x="143.109375" y="123.151367"/>
</g>
<path style="fill:none;stroke-width:1.2;stroke-linecap:butt;stroke-linejoin:miter;stroke:rgb(0%,0%,0%);stroke-opacity:1;stroke-miterlimit:10;" d="M 171.34375 126.007812 L 178.246094 150 "/>
<path style="fill:none;stroke-width:1.2;stroke-linecap:butt;stroke-linejoin:miter;stroke:rgb(0%,0%,0%);stroke-opacity:1;stroke-miterlimit:10;" d="M 188.667969 108.03125 L 171.34375 126.007812 "/>
<path style="fill:none;stroke-width:1.2;stroke-linecap:butt;stroke-linejoin:miter;stroke:rgb(0%,0%,0%);stroke-opacity:1;stroke-miterlimit:10;" d="M 178.246094 150 L 202.476562 156.015625 "/>
<path style=" stroke:none;fill-rule:nonzero;fill:rgb(0%,0%,0%);fill-opacity:1;" d="M 178.246094 150 L 180.917969 175.210938 L 189.386719 172.773438 Z M 178.246094 150 "/>
<path style="fill:none;stroke-width:1.2;stroke-linecap:butt;stroke-linejoin:miter;stroke:rgb(0%,0%,0%);stroke-opacity:1;stroke-miterlimit:10;" d="M 202.476562 156.015625 L 219.804688 138.039062 "/>
<path style="fill:none;stroke-width:1.2;stroke-linecap:butt;stroke-linejoin:miter;stroke:rgb(0%,0%,0%);stroke-opacity:1;stroke-miterlimit:10;" d="M 202.476562 156.015625 L 209.382812 180.011719 "/>
<path style="fill:none;stroke-width:1.2;stroke-linecap:butt;stroke-linejoin:miter;stroke:rgb(0%,0%,0%);stroke-opacity:1;stroke-miterlimit:10;" d="M 219.804688 138.039062 L 212.898438 114.046875 "/>
<path style="fill:none;stroke-width:1.2;stroke-linecap:butt;stroke-linejoin:miter;stroke:rgb(0%,0%,0%);stroke-opacity:1;stroke-miterlimit:10;" d="M 219.804688 138.039062 L 242.234375 127.074219 "/>
<path style="fill:none;stroke-width:1.2;stroke-linecap:butt;stroke-linejoin:miter;stroke:rgb(0%,0%,0%);stroke-opacity:1;stroke-miterlimit:10;" d="M 219.804688 138.039062 L 234.5 158.226562 "/>
<path style="fill:none;stroke-width:1.2;stroke-linecap:butt;stroke-linejoin:miter;stroke:rgb(0%,0%,0%);stroke-opacity:1;stroke-miterlimit:10;" d="M 212.898438 114.046875 L 188.667969 108.03125 "/>
<path style="fill:none;stroke-width:1.2;stroke-linecap:butt;stroke-linejoin:miter;stroke:rgb(0%,0%,0%);stroke-opacity:1;stroke-miterlimit:10;" d="M 212.898438 114.046875 L 221.5625 105.058594 "/>
<path style="fill:none;stroke-width:1.2;stroke-linecap:butt;stroke-linejoin:miter;stroke:rgb(100%,0%,0%);stroke-opacity:1;stroke-miterlimit:10;" d="M 221.5625 105.058594 L 230.226562 96.070312 "/>
<path style=" stroke:none;fill-rule:nonzero;fill:rgb(100%,100%,100%);fill-opacity:1;" d="M 223.226562 90.570312 L 238.226562 90.570312 L 238.226562 101.570312 L 223.226562 101.570312 Z M 223.226562 90.570312 "/>
<g style="fill:rgb(100%,0%,0%);fill-opacity:1;">
  <use xlink:href="#glyph0-1" x="223.226562" y="99.233398"/>
  <use xlink:href="#glyph0-2" x="230.568359" y="99.233398"/>
</g>
<path style="fill:none;stroke-width:1.2;stroke-linecap:butt;stroke-linejoin:miter;stroke:rgb(0%,0%,0%);stroke-opacity:1;stroke-miterlimit:10;" d="M 209.382812 180.011719 L 233.613281 186.027344 "/>
<path style="fill:none;stroke-width:1.2;stroke-linecap:butt;stroke-linejoin:miter;stroke:rgb(0%,0%,0%);stroke-opacity:1;stroke-miterlimit:10;" d="M 235.730469 188.066406 L 244.390625 179.078125 "/>
<path style="fill:none;stroke-width:1.2;stroke-linecap:butt;stroke-linejoin:miter;stroke:rgb(100%,0%,0%);stroke-opacity:1;stroke-miterlimit:10;" d="M 244.390625 179.078125 L 253.054688 170.089844 "/>
<path style="fill:none;stroke-width:1.2;stroke-linecap:butt;stroke-linejoin:miter;stroke:rgb(0%,0%,0%);stroke-opacity:1;stroke-miterlimit:10;" d="M 231.5 183.988281 L 240.164062 175 "/>
<path style="fill:none;stroke-width:1.2;stroke-linecap:butt;stroke-linejoin:miter;stroke:rgb(100%,0%,0%);stroke-opacity:1;stroke-miterlimit:10;" d="M 240.164062 175 L 248.824219 166.011719 "/>
<path style="fill:none;stroke-width:1.2;stroke-linecap:butt;stroke-linejoin:miter;stroke:rgb(0%,0%,0%);stroke-opacity:1;stroke-miterlimit:10;" d="M 233.613281 186.027344 L 237.066406 198.023438 "/>
<path style="fill:none;stroke-width:1.2;stroke-linecap:butt;stroke-linejoin:miter;stroke:rgb(100%,0%,0%);stroke-opacity:1;stroke-miterlimit:10;" d="M 237.066406 198.023438 L 240.519531 210.019531 "/>
<path style=" stroke:none;fill-rule:nonzero;fill:rgb(100%,100%,100%);fill-opacity:1;" d="M 246.941406 162.550781 L 254.941406 162.550781 L 254.941406 173.550781 L 246.941406 173.550781 Z M 246.941406 162.550781 "/>
<g style="fill:rgb(100%,0%,0%);fill-opacity:1;">
  <use xlink:href="#glyph0-1" x="246.941406" y="171.213867"/>
</g>
<path style="fill:none;stroke-width:1.2;stroke-linecap:butt;stroke-linejoin:miter;stroke:rgb(100%,0%,0%);stroke-opacity:1;stroke-miterlimit:10;" d="M 240.519531 210.019531 L 252.632812 213.027344 "/>
<path style="fill:none;stroke-width:1.2;stroke-linecap:butt;stroke-linejoin:miter;stroke:rgb(0%,0%,0%);stroke-opacity:1;stroke-miterlimit:10;" d="M 252.632812 213.027344 L 264.75 216.039062 "/>
<path style=" stroke:none;fill-rule:nonzero;fill:rgb(100%,100%,100%);fill-opacity:1;" d="M 236.519531 204.519531 L 244.519531 204.519531 L 244.519531 215.519531 L 236.519531 215.519531 Z M 236.519531 204.519531 "/>
<g style="fill:rgb(100%,0%,0%);fill-opacity:1;">
  <use xlink:href="#glyph0-1" x="236.519531" y="213.182617"/>
</g>
</g>
</svg>

<svg xmlns="http://www.w3.org/2000/svg" xmlns:xlink="http://www.w3.org/1999/xlink" width="300pt" height="300pt" viewBox="0 0 300 300"><defs><symbol overflow="visible"><path d="M.453 1.594v-7.938h4.5v7.938zm.5-.5h3.5v-6.938h-3.5zm0 0"/></symbol><symbol overflow="visible" id="a"><path d="M3.547-5.953c-.65 0-1.164.242-1.547.72-.375.48-.563 1.13-.563 1.952 0 .835.188 1.49.563 1.967.383.48.898.72 1.547.72.644 0 1.156-.24 1.53-.72.376-.476.564-1.132.564-1.968 0-.822-.187-1.474-.562-1.954-.375-.477-.887-.72-1.53-.72zm0-.734c.914 0 1.648.312 2.203.937.55.617.828 1.438.828 2.47 0 1.042-.277 1.87-.828 2.483-.555.617-1.29.922-2.203.922-.93 0-1.668-.305-2.22-.922C.774-1.41.5-2.237.5-3.28c0-1.033.273-1.853.828-2.47.55-.625 1.29-.938 2.22-.938zm0 0"/></symbol><symbol overflow="visible" id="b"><path d="M.89-6.563h.876v2.688H5v-2.688h.89V0H5v-3.125H1.766V0H.89zm0 0"/></symbol></defs><g><path fill="#fff" d="M0 0h300v300H0z"/><path d="M112.457 155.94m-2.426 1.767l.755.723m-3.18 1.043l1.504 1.45m-3.93.315l2.254 2.172m-4.68-.406l3.004 2.894m-5.426-1.128l3.75 3.617m-6.176-1.852l4.504 4.34m-6.93-2.574l5.254 5.067m-7.68-3.3l6.005 5.788m-7.1-4.992l6.345 6.114" stroke="#000" stroke-miterlimit="10" fill="none"/><path d="M112.457 155.94l6.906 23.998M129.785 137.965l-17.328 17.976M88.227 149.926l24.23 6.015M119.363 179.938l24.23 6.015M143.594 185.953l17.328-17.976M160.922 167.977l-6.906-23.993M178.246 150l-17.324 17.977M155.574 146.473l11.246-7.043M152.457 141.492l11.246-7.04M154.016 143.984l-24.23-6.02" stroke-width="1.2" stroke="#000" stroke-miterlimit="10" fill="none"/><path d="M129.785 137.965l-2.672-25.21-8.468 2.436zm0 0"/><path d="M129.785 137.965l8.664-8.988" stroke-width="1.2" stroke="#000" stroke-miterlimit="10" fill="none"/><path d="M138.45 128.977l8.66-8.99" stroke-width="1.2" stroke="#f00" stroke-miterlimit="10" fill="none"/><path d="M122.88 113.973l-24.232-6.016M101.473 107.145L98.02 95.148" stroke-width="1.2" stroke="#000" stroke-miterlimit="10" fill="none"/><path d="M98.02 95.148l-3.454-11.996" stroke-width="1.2" stroke="#f00" stroke-miterlimit="10" fill="none"/><path d="M95.824 108.77l-3.45-11.997" stroke-width="1.2" stroke="#000" stroke-miterlimit="10" fill="none"/><path d="M92.375 96.773l-3.453-12" stroke-width="1.2" stroke="#f00" stroke-miterlimit="10" fill="none"/><path d="M98.648 107.957l-8.664 8.988" stroke-width="1.2" stroke="#000" stroke-miterlimit="10" fill="none"/><path d="M89.984 116.945l-8.664 8.99" stroke-width="1.2" stroke="#f00" stroke-miterlimit="10" fill="none"/><path d="M87.742 78.46h8v11h-8zm0 0" fill="#fff"/><use xlink:href="#a" x="87.742" y="87.124" fill="#f00"/><path d="M81.32 125.934l3.453 11.996" stroke-width="1.2" stroke="#f00" stroke-miterlimit="10" fill="none"/><path d="M84.773 137.93l3.454 11.996" stroke-width="1.2" stroke="#000" stroke-miterlimit="10" fill="none"/><path d="M77.32 120.434h8v11h-8zm0 0" fill="#fff"/><use xlink:href="#a" x="77.32" y="129.097" fill="#f00"/><path d="M88.227 149.926l-17.325 17.976M70.902 167.902l4.356 24.582M65.55 171.387l3.49 19.668M46.172 164.45l24.73 3.452M75.258 192.484l-11.016 5.87" stroke-width="1.2" stroke="#000" stroke-miterlimit="10" fill="none"/><path d="M64.242 198.355l-11.015 5.872M53.227 204.227l-8.99-8.66" stroke-width="1.2" stroke="#f00" stroke-miterlimit="10" fill="none"/><path d="M44.238 195.566l-8.988-8.664" stroke-width="1.2" stroke="#000" stroke-miterlimit="10" fill="none"/><path d="M49.227 198.727h8v11h-8zm0 0" fill="#fff"/><use xlink:href="#a" x="49.227" y="207.39" fill="#f00"/><path d="M35.25 186.902l10.922-22.453M41.625 187.227l8.738-17.96" stroke-width="1.2" stroke="#000" stroke-miterlimit="10" fill="none"/><path d="M147.11 119.988L159.226 123" stroke-width="1.2" stroke="#f00" stroke-miterlimit="10" fill="none"/><path d="M159.227 123l12.117 3.008" stroke-width="1.2" stroke="#000" stroke-miterlimit="10" fill="none"/><path d="M143.11 114.488h8v11h-8zm0 0" fill="#fff"/><use xlink:href="#a" x="143.109" y="123.151" fill="#f00"/><path d="M171.344 126.008L178.246 150M188.668 108.03l-17.324 17.978M178.246 150l24.23 6.016" stroke-width="1.2" stroke="#000" stroke-miterlimit="10" fill="none"/><path d="M178.246 150l2.672 25.21 8.47-2.437zm0 0"/><path d="M202.477 156.016l17.328-17.977M202.477 156.016l6.906 23.996M219.805 138.04l-6.907-23.993M219.805 138.04l22.43-10.966M219.805 138.04l14.695 20.187M212.898 114.047l-24.23-6.016M212.898 114.047l8.665-8.988" stroke-width="1.2" stroke="#000" stroke-miterlimit="10" fill="none"/><path d="M221.563 105.06l8.664-8.99" stroke-width="1.2" stroke="#f00" stroke-miterlimit="10" fill="none"/><path d="M223.227 90.57h15v11h-15zm0 0" fill="#fff"/><g fill="#f00"><use xlink:href="#a" x="223.227" y="99.233"/><use xlink:href="#b" x="230.568" y="99.233"/></g><path d="M209.383 180.012l24.23 6.015M235.73 188.066l8.66-8.988" stroke-width="1.2" stroke="#000" stroke-miterlimit="10" fill="none"/><path d="M244.39 179.078l8.665-8.988" stroke-width="1.2" stroke="#f00" stroke-miterlimit="10" fill="none"/><path d="M231.5 183.988l8.664-8.988" stroke-width="1.2" stroke="#000" stroke-miterlimit="10" fill="none"/><path d="M240.164 175l8.66-8.988" stroke-width="1.2" stroke="#f00" stroke-miterlimit="10" fill="none"/><path d="M233.613 186.027l3.453 11.996" stroke-width="1.2" stroke="#000" stroke-miterlimit="10" fill="none"/><path d="M237.066 198.023l3.454 11.997" stroke-width="1.2" stroke="#f00" stroke-miterlimit="10" fill="none"/><path d="M246.94 162.55h8v11h-8zm0 0" fill="#fff"/><use xlink:href="#a" x="246.941" y="171.214" fill="#f00"/><path d="M240.52 210.02l12.113 3.007" stroke-width="1.2" stroke="#f00" stroke-miterlimit="10" fill="none"/><path d="M252.633 213.027l12.117 3.012" stroke-width="1.2" stroke="#000" stroke-miterlimit="10" fill="none"/><path d="M236.52 204.52h8v11h-8zm0 0" fill="#fff"/><use xlink:href="#a" x="236.52" y="213.183" fill="#f00"/></g></svg>
